X: 21761
T: King Of The Fairies
R: hornpipe
M: 4/4
K: Eminor
|B,2|:E>D E>F G>FG>A|B>c B>A G>F G>A|Bz E2 E>F G>E|F>G F>E D2 B,2|
E>D E>F G>F G>A|B>A G>B d2 c>B|c2 E>F G>F E>D|E2 E>D E2 [1 B,2:|2 (3B^cd||
|:e2e2 B>d e>f|g>a g>f e2 e>f|e2 B2 B>A B>^c|d>e d>^c B>c (3dcB|
e2B2 B>d e>f|g>a g>f e2 e>f|g>f (3efg f>e (3def|e2 e>d e2 e>f:|
g2 g>e f2 f>d|e>d B>^c d2 d>e|d>B A>F G>A B>^c|d>B A>F G>F E>D|
B2 E2 E>F G>A|B2 e2 e>d e>f|e2 B2 B>A G>F|E2 E>D E2|

